lib/preview_tmp/nrk-logo-preview-nrk-tegnspraak-title-below-on-light.svg

<svg width="97" height="40" viewBox="0 0 97 40" fill="none" xmlns="http://www.w3.org/2000/svg">
<path d="M0 15.0033V1.00459H4.59339V15.0033H0ZM10.8428 3.23256L13.4844 15.0033H8.45737L5.30307 1.00459H8.12254C8.76907 0.996197 9.39641 1.22411 9.88691 1.64544C10.3782 2.04909 10.7158 2.60946 10.8428 3.23256ZM14.1744 15.0033V1.00459H18.7678V15.0033H14.1744ZM22.2372 6.3281C21.7422 6.33292 21.2552 6.20342 20.828 5.95344C20.4064 5.70979 20.0563 5.3596 19.8127 4.93801C19.5624 4.5107 19.4329 4.02354 19.4378 3.52835C19.4321 3.03619 19.5618 2.55193 19.8127 2.12848C20.0589 1.71147 20.4086 1.36509 20.828 1.12292C21.2553 0.873236 21.7423 0.74375 22.2372 0.748264C22.7292 0.742965 23.2133 0.872567 23.6369 1.12292C24.0521 1.36721 24.3981 1.7133 24.6424 2.12848C24.893 2.55204 25.0226 3.03623 25.0172 3.52835C25.0218 4.0235 24.8923 4.51058 24.6424 4.93801C24.4007 5.35775 24.0542 5.70764 23.6369 5.95344C23.2133 6.20429 22.7289 6.33392 22.2366 6.3281H22.2372ZM25.7269 15.0033V1.00459H30.3207V15.0033H25.7269ZM36.136 8.65459C36.1489 8.66817 36.2475 8.82918 36.4317 9.13763C36.6159 9.44609 36.8558 9.84045 37.1513 10.3207C37.447 10.8006 37.759 11.3099 38.0874 11.8486C38.4157 12.3873 38.7247 12.8967 39.0143 13.3767C39.3028 13.8567 39.6313 14.3989 40 15.0033H34.9531C34.6375 14.4907 34.3515 14.0274 34.0952 13.6133C33.8389 13.1993 33.5665 12.7523 33.2778 12.2726C32.9885 11.7932 32.7024 11.3266 32.4196 10.8727C32.1368 10.4188 31.8938 10.0212 31.6905 9.67988C31.4863 9.33835 31.3449 9.10829 31.2663 8.98977C31.0713 8.69567 30.9559 8.35599 30.9315 8.00395C30.951 7.66607 31.0597 7.33946 31.2466 7.05728C31.3254 6.92583 31.47 6.69248 31.6803 6.3573C31.8906 6.02212 32.137 5.62454 32.4196 5.16449C32.7021 4.70444 32.9882 4.23452 33.2778 3.75475C33.5674 3.27499 33.8398 2.82476 34.0952 2.40414C34.3519 1.98396 34.6379 1.51733 34.9531 1.00427H40L36.0962 7.37273C35.9754 7.56181 35.9073 7.77972 35.8991 8.00395C35.9121 8.23936 35.9942 8.46569 36.1353 8.65459H36.136Z" fill="#0A2343"/>
<path d="M0 22.722H4.52459V35.0115H6.59917V22.722H11.1043V20.9833H0V22.722Z" fill="#1767CE"/>
<path d="M20.6278 26.2093C20.2485 25.7177 19.7481 25.333 19.1755 25.093C18.5394 24.8333 17.8571 24.7056 17.1701 24.7176C16.478 24.7058 15.7912 24.8405 15.1548 25.1127C14.5759 25.3662 14.0598 25.7439 13.6432 26.2192C13.2141 26.7184 12.8913 27.3 12.6945 27.9282C12.4694 28.6473 12.3595 29.3976 12.3689 30.151C12.3409 31.103 12.5406 32.048 12.9514 32.9073C13.327 33.6519 13.9335 34.2549 14.6802 34.6262C15.5565 35.039 16.518 35.2387 17.4862 35.2091C17.9519 35.2131 18.4174 35.1834 18.8788 35.1202C19.2646 35.0647 19.6447 34.9754 20.0149 34.8534C20.3821 34.7303 20.7389 34.5783 21.0822 34.399L21.2205 32.8776C20.97 32.9698 20.7163 33.062 20.4595 33.1542C20.2026 33.2464 19.9359 33.3288 19.6593 33.4012C19.3802 33.4743 19.0963 33.5271 18.8097 33.5593C18.5212 33.5921 18.231 33.6086 17.9406 33.6087C17.4218 33.6171 16.904 33.5606 16.3992 33.4407C15.9919 33.3435 15.6153 33.1466 15.3029 32.8678C14.9871 32.5672 14.7555 32.1891 14.6312 31.7712C14.502 31.3479 14.4296 30.9094 14.4158 30.4672H21.556C21.6532 29.65 21.6165 28.8225 21.4474 28.0172C21.3085 27.3622 21.0288 26.7453 20.6278 26.2093ZM15.6487 26.6835C16.1122 26.4021 16.6475 26.2614 17.1895 26.2784C17.7322 26.2513 18.2682 26.4079 18.7109 26.723C19.1045 27.037 19.3853 27.4704 19.5111 27.9579C19.6096 28.3184 19.6581 28.6907 19.6553 29.0643H14.4589C14.4958 28.6704 14.58 28.2823 14.7099 27.9085C14.8786 27.4075 15.2088 26.9766 15.6487 26.6835Z" fill="#1767CE"/>
<path d="M30.3583 24.9744C30.0564 24.8918 29.7495 24.8291 29.4395 24.7867C29.0858 24.7392 28.7292 24.716 28.3722 24.7176C27.7277 24.7149 27.0892 24.8426 26.4952 25.093C25.9 25.3449 25.3597 25.7107 24.9047 26.1698C24.4197 26.6648 24.0459 27.2575 23.8081 27.9085C23.5325 28.6714 23.3986 29.4783 23.413 30.2893C23.3913 31.1816 23.5631 32.0679 23.9165 32.8875C24.2262 33.5884 24.7391 34.1803 25.3888 34.5867C26.0996 35.006 26.9148 35.215 27.7396 35.1893C28.4643 35.1867 29.1819 35.0459 29.8538 34.7744C30.2553 34.6108 30.6339 34.3957 30.98 34.1346V34.6756C30.9881 35.1208 30.9248 35.5644 30.7926 35.9895C30.6785 36.3462 30.4823 36.671 30.2196 36.9379C29.9365 37.2097 29.5901 37.4067 29.2117 37.5109C28.7195 37.6461 28.2104 37.7093 27.7001 37.6986C27.2942 37.698 26.8887 37.6749 26.4854 37.6295C26.0617 37.5816 25.6423 37.5023 25.2304 37.3924C24.8062 37.2793 24.3904 37.1374 23.9856 36.9676L24.203 38.7063C24.5663 38.8537 24.9394 38.9758 25.3196 39.0718C25.7194 39.1728 26.1252 39.2486 26.5344 39.299C26.9671 39.3522 27.4026 39.3786 27.8385 39.378C28.8109 39.4085 29.7774 39.2159 30.6638 38.8149C31.3836 38.4798 31.986 37.936 32.3927 37.2541C32.7906 36.5532 32.9921 35.758 32.9759 34.9522V24.7176L31.0432 25.2148C30.8202 25.1204 30.5914 25.0401 30.3583 24.9744ZM30.7235 32.8875C30.4787 33.0298 30.2246 33.1552 29.9628 33.2629C29.7322 33.3577 29.4943 33.4336 29.2515 33.4901C29.015 33.5437 28.7732 33.5702 28.5307 33.5692C27.9371 33.5906 27.3482 33.4579 26.8212 33.1839C26.3622 32.9218 26.0067 32.5104 25.8139 32.0182C25.5757 31.3773 25.465 30.6961 25.4879 30.0127C25.479 29.4674 25.5556 28.9241 25.7148 28.4024C25.8442 27.9737 26.067 27.579 26.3671 27.2466C26.6593 26.9376 27.017 26.6979 27.414 26.5452C27.865 26.3743 28.3444 26.2905 28.8267 26.2982C29.138 26.298 29.4488 26.3244 29.7556 26.3772C30.0698 26.4327 30.38 26.5086 30.6843 26.6044C30.7811 26.6347 30.8818 26.6749 30.9806 26.7118V32.7354C30.8937 32.7874 30.8051 32.8408 30.7235 32.8875Z" fill="#1767CE"/>
<path d="M43.7835 25.1325C43.1965 24.836 42.5439 24.6932 41.8868 24.7176C41.3133 24.7187 40.7434 24.8087 40.1974 24.9843C39.6348 25.1635 39.0996 25.4195 38.6069 25.745C38.4163 25.8704 38.2328 26.0084 38.0537 26.15V24.7373L36.0384 25.0337V35.0115H38.0537V27.5074C38.2488 27.3932 38.45 27.2896 38.6563 27.1972C38.9338 27.0743 39.2174 26.9655 39.5059 26.8712C39.7834 26.7805 40.0674 26.7111 40.3555 26.6637C40.6265 26.6186 40.9007 26.5955 41.1755 26.5946C41.4979 26.5871 41.8191 26.6373 42.1238 26.7428C42.3753 26.8334 42.5997 26.9863 42.7759 27.1873C42.9573 27.4052 43.0858 27.6622 43.1513 27.9381C43.2355 28.2874 43.2753 28.6458 43.2698 29.0051V35.0115H45.2851V28.5901C45.3114 27.8411 45.1836 27.0946 44.9097 26.397C44.6866 25.8612 44.29 25.4159 43.7835 25.1325Z" fill="#1767CE"/>
<path d="M54.5118 30.4671C54.3095 30.2528 54.0764 30.0697 53.8203 29.9238C53.5551 29.7719 53.2773 29.6431 52.9901 29.5385C52.7794 29.4727 52.5719 29.4035 52.3678 29.3311C52.1636 29.2586 51.9594 29.1927 51.7553 29.1335C51.5511 29.0742 51.3535 29.0116 51.1625 28.9458C50.9834 28.8848 50.8085 28.8122 50.6389 28.7284C50.4765 28.6422 50.3212 28.5431 50.1746 28.4321C50.0393 28.3301 49.9253 28.2025 49.839 28.0567C49.7518 27.9068 49.7073 27.736 49.7103 27.5627C49.705 27.3722 49.753 27.184 49.8489 27.0194C49.952 26.8576 50.0949 26.725 50.2638 26.6341C50.4705 26.5205 50.6939 26.4405 50.9257 26.397C51.2154 26.3414 51.51 26.3149 51.805 26.3179C51.9495 26.3179 52.1076 26.3249 52.2792 26.3377C52.4507 26.3505 52.6378 26.3743 52.8423 26.4069C53.0468 26.4395 53.2503 26.4829 53.4544 26.5353C53.6586 26.5877 53.8661 26.6472 54.0772 26.7131C54.2725 26.7732 54.4638 26.8457 54.6498 26.9304L54.7884 25.33C54.5379 25.2247 54.291 25.1325 54.0475 25.0534C53.8042 24.9746 53.5569 24.9086 53.3066 24.8558C53.0621 24.8041 52.8147 24.7678 52.5656 24.7472C52.3217 24.7274 52.0814 24.7175 51.8445 24.7175C51.2987 24.712 50.7544 24.775 50.2243 24.9053C49.771 25.0154 49.3399 25.2025 48.9499 25.4585C48.5963 25.6923 48.3074 26.0118 48.1102 26.3871C47.9037 26.8007 47.8019 27.2586 47.8139 27.7208C47.8078 28.0536 47.8614 28.3849 47.9722 28.6988C48.0658 28.9623 48.2064 29.2066 48.3872 29.42C48.5628 29.6215 48.7656 29.7978 48.9898 29.9436C49.2231 30.0967 49.4713 30.2257 49.7307 30.3288C49.8754 30.3815 50.0268 30.4342 50.1851 30.4869C50.3434 30.5396 50.4982 30.589 50.6495 30.6351C50.8006 30.6815 50.9488 30.7273 51.0937 30.7734C51.2386 30.8195 51.3802 30.8656 51.5185 30.9117C51.6568 30.9578 51.7918 31.0006 51.9238 31.0401C52.1005 31.1028 52.2721 31.1787 52.4372 31.2673C52.5822 31.3441 52.7182 31.4369 52.8426 31.544C52.9519 31.6395 53.0394 31.7574 53.0991 31.8897C53.1597 32.0265 53.1902 32.1748 53.1884 32.3244C53.1954 32.4706 53.1698 32.6165 53.1133 32.7515C53.0568 32.8865 52.971 33.0072 52.862 33.1048C52.6175 33.3093 52.3252 33.4486 52.0124 33.5099C51.646 33.5908 51.2717 33.6306 50.8964 33.6284C50.6618 33.6268 50.4275 33.6103 50.195 33.579C49.9382 33.5465 49.6681 33.5004 49.3849 33.4407C49.1017 33.381 48.8119 33.3086 48.5153 33.2234C48.2191 33.138 47.9196 33.0425 47.6166 32.9369L47.6956 34.6163C48.0377 34.7349 48.3505 34.8304 48.6341 34.9028C48.9178 34.9753 49.1878 35.0378 49.4442 35.0905C49.6917 35.1419 49.9427 35.1749 50.195 35.1893C50.4385 35.2025 50.6855 35.2091 50.9359 35.2091C51.4869 35.2119 52.0366 35.1556 52.5755 35.0411C53.05 34.9447 53.5044 34.7676 53.9191 34.5175C54.2928 34.2894 54.6024 33.9698 54.8184 33.5889C55.0446 33.1709 55.1569 32.7007 55.1441 32.2256C55.1524 31.8789 55.0954 31.5337 54.9762 31.2081C54.8701 30.9337 54.7125 30.6822 54.5118 30.4671Z" fill="#1767CE"/>
<path d="M65.1318 25.3399C64.4227 24.9057 63.6017 24.6893 62.7707 24.7175C62.2775 24.72 61.7864 24.783 61.3086 24.9052C60.7921 25.0365 60.2942 25.2323 59.8268 25.4881C59.7339 25.5385 59.642 25.5945 59.5501 25.6511V24.7373L57.5348 25.0534V39.1607H59.5501V34.7372C59.5637 34.7428 59.5762 34.749 59.5897 34.7546C59.9547 34.9063 60.3358 35.0157 60.7257 35.0806C61.1861 35.1566 61.6521 35.1929 62.1187 35.1893C63.0083 35.2046 63.8854 34.9793 64.6576 34.5373C65.4157 34.0878 66.032 33.4339 66.4358 32.6504C66.9025 31.7163 67.1299 30.681 67.0977 29.6373C67.1161 28.7549 66.9444 27.8789 66.5942 27.0688C66.2849 26.3627 65.7767 25.762 65.1318 25.3399ZM64.6082 31.949C64.3709 32.4737 63.973 32.9096 63.4721 33.1937C62.9152 33.4854 62.2925 33.6283 61.6642 33.6087C61.3632 33.6088 61.0627 33.5857 60.7653 33.5395C60.4532 33.4897 60.1458 33.4137 59.8465 33.3123C59.7516 33.2794 59.6489 33.2418 59.5501 33.2056V26.9703C59.5765 26.9581 59.6032 26.9423 59.6292 26.9304C59.9185 26.7987 60.1885 26.6868 60.4392 26.5946C60.6762 26.5061 60.921 26.4399 61.1703 26.397C61.3922 26.3588 61.6169 26.339 61.8421 26.3377C62.4512 26.3175 63.0557 26.45 63.6005 26.723C64.077 26.9824 64.4501 27.3973 64.6576 27.8986C64.9089 28.5398 65.0267 29.2256 65.0037 29.9139C65.0246 30.6132 64.8895 31.3084 64.6082 31.949Z" fill="#1767CE"/>
<path d="M73.6765 24.8651C73.307 24.9641 72.9543 25.1172 72.6297 25.3195C72.2925 25.5299 71.9807 25.7785 71.7007 26.0604C71.6543 26.1069 71.6088 26.1592 71.5627 26.2083V24.7366L69.547 25.033V35.0108H71.5627V27.5463C71.7125 27.4417 71.8674 27.3447 72.027 27.2558C72.2247 27.147 72.4293 27.0513 72.6395 26.9693C72.8435 26.8903 73.0509 26.8211 73.2619 26.7619C73.4786 26.7015 73.6999 26.6586 73.9235 26.6334C74.163 26.6068 74.4043 26.6002 74.645 26.6137L74.8821 24.7564C74.477 24.7273 74.0698 24.764 73.6765 24.8651Z" fill="#1767CE"/>
<path d="M85.2748 33.7667C85.1304 33.78 84.9849 33.7581 84.8508 33.7031C84.7166 33.6481 84.5977 33.5614 84.5042 33.4506C84.321 33.134 84.2448 32.7668 84.2869 32.4034L84.3264 28.3333C84.3308 27.9066 84.2776 27.4812 84.1683 27.0688C84.0724 26.707 83.9117 26.3656 83.6942 26.0611C83.4744 25.7633 83.1952 25.5143 82.8742 25.33C82.5013 25.1184 82.0982 24.9651 81.6788 24.8756C81.1661 24.7648 80.6425 24.7118 80.118 24.7175C79.7018 24.7174 79.286 24.7438 78.8732 24.7966C78.4831 24.8457 78.0969 24.9216 77.7173 25.0238C77.3653 25.1193 77.019 25.2347 76.68 25.3696L76.443 27.049C76.7723 26.9305 77.0851 26.8317 77.3815 26.7526C77.6778 26.6736 77.9643 26.6077 78.2409 26.555C78.512 26.5033 78.7857 26.467 79.0609 26.4464C79.3307 26.4266 79.5974 26.4167 79.8611 26.4167C80.264 26.4082 80.6662 26.4548 81.0565 26.555C81.3412 26.6263 81.603 26.7691 81.8171 26.97C82.0077 27.1653 82.144 27.4071 82.2123 27.6714C82.2966 27.9971 82.3364 28.3327 82.3309 28.6692L82.3286 29.1651L80.0192 29.3212C79.2292 29.3431 78.451 29.5176 77.7272 29.8349C77.1856 30.0718 76.718 30.4507 76.3738 30.9315C76.0818 31.3592 75.9267 31.8657 75.9292 32.3837C75.9255 32.8697 76.0445 33.3488 76.275 33.7766C76.5168 34.2161 76.8804 34.5763 77.3222 34.8139C77.8612 35.0943 78.4636 35.2304 79.0708 35.2091C79.6397 35.2222 80.206 35.1283 80.7403 34.9325C81.2023 34.7516 81.6249 34.4832 81.9851 34.1421C82.1217 34.011 82.2515 33.8729 82.3737 33.7282C82.4121 33.9327 82.4844 34.1294 82.5877 34.3101C82.7638 34.6126 83.0346 34.8486 83.3583 34.9819C83.716 35.1256 84.099 35.1961 84.4845 35.1893C84.603 35.1893 84.7183 35.186 84.8302 35.1794C84.9402 35.1728 85.0493 35.1563 85.1562 35.13C85.2616 35.1034 85.3568 35.0806 85.4427 35.0609C85.5201 35.0436 85.5961 35.0205 85.67 34.9917L85.8873 33.6679C85.7783 33.7054 85.6657 33.7318 85.5514 33.747C85.4597 33.7592 85.3673 33.7658 85.2748 33.7667ZM81.9851 32.8776C81.7709 33.047 81.5391 33.1928 81.2936 33.3123C81.0491 33.431 80.7901 33.5174 80.5233 33.5692C80.2465 33.6225 79.9652 33.6489 79.6833 33.6482C79.3613 33.6574 79.0411 33.5967 78.7448 33.4704C78.5037 33.3657 78.3004 33.1899 78.1619 32.9665C78.025 32.7297 77.9566 32.4595 77.9643 32.1861C77.9452 31.8567 78.0355 31.5302 78.2212 31.2575C78.4363 31.0064 78.7278 30.8329 79.051 30.7635C79.5558 30.6445 80.0738 30.5914 80.5921 30.6054H82.3223L82.3134 32.5664C82.2131 32.6794 82.1033 32.7835 81.9851 32.8776Z" fill="#1767CE"/>
<path d="M78.9621 23.1369C79.3354 23.3135 79.7445 23.4014 80.1575 23.3937C80.581 23.4021 81.0007 23.3107 81.3824 23.127C81.7266 22.9596 82.0174 22.6996 82.2222 22.3762C82.4332 22.0284 82.5395 21.6271 82.5284 21.2204C82.5411 20.9254 82.4893 20.6311 82.3767 20.3581C82.2641 20.0852 82.0934 19.84 81.8764 19.6397C81.4133 19.2341 80.8121 19.0219 80.197 19.047C79.7854 19.0423 79.3776 19.1266 79.0016 19.2939C78.6485 19.4511 78.3496 19.7088 78.1421 20.0349C77.9222 20.3975 77.8123 20.8162 77.826 21.2401C77.8122 21.6503 77.9187 22.0555 78.1322 22.4058C78.3359 22.7216 78.6232 22.9746 78.9621 23.1369ZM79.2782 20.2917C79.403 20.1812 79.5484 20.0963 79.7061 20.0421C79.8637 19.9878 80.0306 19.9652 80.197 19.9756C80.4419 19.9646 80.685 20.0228 80.8984 20.1435C81.071 20.2496 81.2084 20.4043 81.2935 20.5881C81.3821 20.7869 81.426 21.0028 81.422 21.2204C81.4259 21.439 81.3785 21.6556 81.2836 21.8526C81.1944 22.0342 81.0535 22.1855 80.8786 22.2873C80.6632 22.4018 80.4209 22.4564 80.1772 22.4454C79.9455 22.4522 79.7155 22.4049 79.5054 22.3071C79.3246 22.2191 79.1785 22.073 79.0905 21.8921C78.9928 21.682 78.9454 21.452 78.9522 21.2204C78.9401 21.0515 78.9628 20.882 79.0188 20.7222C79.0749 20.5625 79.1632 20.416 79.2782 20.2917Z" fill="#1767CE"/>
<path d="M93.8495 35.0115H96.4576L91.6649 29.611L96.3587 24.9349H93.889L90.5081 28.6494H89.7793V20.0942L87.764 20.3905V35.0115H89.7793V30.1708H89.8122L93.8495 35.0115Z" fill="#1767CE"/>
</svg>

<svg xmlns="http://www.w3.org/2000/svg" viewBox="0 0 97 40"><path fill="#0A2343" d="M0 15.003V1.005h4.593v13.998H0Zm10.843-11.77 2.641 11.77H8.457L5.303 1.005h2.82a2.655 2.655 0 0 1 1.764.64c.491.404.829.964.956 1.588Zm3.331 11.77V1.005h4.594v13.998h-4.594Zm8.063-8.675a2.737 2.737 0 0 1-1.409-.375 2.778 2.778 0 0 1-1.015-1.015 2.735 2.735 0 0 1-.375-1.41 2.685 2.685 0 0 1 .375-1.4 2.812 2.812 0 0 1 3.824-1.005c.415.244.761.59 1.005 1.005.251.424.38.908.375 1.4.005.496-.125.983-.375 1.41a2.8 2.8 0 0 1-1.005 1.015c-.424.251-.908.38-1.4.375Zm3.49 8.675V1.005h4.594v13.998h-4.594Zm10.409-6.348c.013.013.111.174.296.483.184.308.424.702.72 1.183a377.185 377.185 0 0 1 1.862 3.056c.289.48.617 1.022.986 1.626h-5.047l-.858-1.39c-.256-.414-.529-.86-.817-1.34-.29-.48-.576-.946-.858-1.4a71.06 71.06 0 0 1-.73-1.193 21.112 21.112 0 0 0-.424-.69 2.04 2.04 0 0 1-.334-.986c.019-.338.128-.665.315-.947.078-.131.223-.365.433-.7a216.7 216.7 0 0 0 1.598-2.603l.817-1.35.858-1.4H40l-3.904 6.369c-.12.189-.189.407-.197.63.013.236.095.463.236.652h.001Z"/><path fill="#1767CE" d="M0 22.722h4.525v12.29h2.074v-12.29h4.505v-1.739H0v1.739ZM20.628 26.21a3.585 3.585 0 0 0-1.453-1.117 5.071 5.071 0 0 0-2.005-.375 4.912 4.912 0 0 0-2.015.395 4.308 4.308 0 0 0-1.512 1.106c-.429.5-.752 1.081-.949 1.71a7.143 7.143 0 0 0-.325 2.222 5.983 5.983 0 0 0 .582 2.756 3.862 3.862 0 0 0 1.73 1.72 6.144 6.144 0 0 0 2.805.582c.466.004.931-.026 1.393-.089a6.659 6.659 0 0 0 1.136-.267 7.356 7.356 0 0 0 1.067-.454l.139-1.521c-.251.092-.505.184-.762.276a9.457 9.457 0 0 1-.8.247c-.279.073-.563.126-.85.158-.288.033-.578.05-.868.05a6.233 6.233 0 0 1-1.542-.168 2.528 2.528 0 0 1-1.096-.573 2.497 2.497 0 0 1-.672-1.097 5.001 5.001 0 0 1-.215-1.304h7.14a7.57 7.57 0 0 0-.109-2.45 4.617 4.617 0 0 0-.82-1.808Zm-4.98.473a2.8 2.8 0 0 1 1.541-.405 2.416 2.416 0 0 1 1.522.445c.394.314.674.747.8 1.235.099.36.147.733.144 1.106H14.46c.037-.394.121-.782.25-1.155.17-.502.5-.932.94-1.226ZM30.358 24.974a7.156 7.156 0 0 0-.919-.187 7.758 7.758 0 0 0-1.067-.07 4.78 4.78 0 0 0-1.877.376 4.962 4.962 0 0 0-1.59 1.077 4.873 4.873 0 0 0-1.097 1.738 6.66 6.66 0 0 0-.395 2.381c-.022.893.15 1.779.503 2.599.31.7.823 1.292 1.473 1.699a4.36 4.36 0 0 0 2.35.602 5.698 5.698 0 0 0 2.115-.415c.401-.163.78-.378 1.126-.64v.542a4.17 4.17 0 0 1-.187 1.313 2.39 2.39 0 0 1-.573.949 2.36 2.36 0 0 1-1.008.573 5.288 5.288 0 0 1-1.512.188c-.406-.001-.811-.024-1.215-.07a8.627 8.627 0 0 1-1.255-.237 9.634 9.634 0 0 1-1.244-.424l.217 1.738c.363.148.736.27 1.117.366.4.1.805.177 1.214.227.433.053.869.08 1.305.079a6.37 6.37 0 0 0 2.825-.563 3.958 3.958 0 0 0 1.729-1.56c.398-.702.6-1.497.583-2.303V24.718l-1.933.497a5.778 5.778 0 0 0-.685-.24Zm.366 7.914a6.23 6.23 0 0 1-.761.375c-.23.095-.469.17-.712.227-.236.054-.478.08-.72.08a3.437 3.437 0 0 1-1.71-.386 2.314 2.314 0 0 1-1.007-1.166 5.252 5.252 0 0 1-.326-2.005 5.225 5.225 0 0 1 .227-1.61c.13-.43.352-.824.652-1.156.292-.31.65-.55 1.047-.702.451-.17.93-.255 1.413-.247.311 0 .622.026.929.08.314.055.624.13.928.226.097.03.198.07.297.108v6.023c-.087.052-.176.106-.258.153ZM43.783 25.133a3.887 3.887 0 0 0-1.896-.415 5.553 5.553 0 0 0-1.69.266 6.42 6.42 0 0 0-1.59.761c-.19.125-.374.263-.553.405v-1.413l-2.016.297v9.977h2.016v-7.504c.195-.114.396-.217.602-.31.278-.123.561-.232.85-.326.277-.09.561-.16.85-.207.27-.045.545-.069.82-.07.322-.007.643.043.948.149.251.09.476.243.652.444.181.218.31.475.375.751.084.35.124.708.119 1.067v6.006h2.015v-6.42a5.475 5.475 0 0 0-.375-2.194 2.59 2.59 0 0 0-1.127-1.264ZM54.512 30.467a2.979 2.979 0 0 0-.692-.543 5.362 5.362 0 0 0-.83-.386c-.21-.065-.418-.134-.622-.207a10.936 10.936 0 0 0-.613-.197c-.204-.06-.402-.122-.593-.188a4.342 4.342 0 0 1-.523-.218 3.444 3.444 0 0 1-.464-.296 1.298 1.298 0 0 1-.336-.375.95.95 0 0 1-.129-.494c-.005-.19.043-.379.139-.544.103-.161.246-.294.415-.385.206-.114.43-.194.662-.237.29-.056.584-.082.879-.08a6.43 6.43 0 0 1 1.037.09c.205.032.408.076.612.128.205.053.412.112.623.178.196.06.387.133.573.217l.138-1.6a9.437 9.437 0 0 0-.74-.277 7.284 7.284 0 0 0-.741-.197 5.953 5.953 0 0 0-.741-.109 8.909 8.909 0 0 0-.722-.03 6.512 6.512 0 0 0-1.62.188c-.453.11-.884.297-1.274.553a2.517 2.517 0 0 0-.84.93 2.822 2.822 0 0 0-.296 1.333c-.006.333.047.664.158.978.094.263.234.508.415.721.176.201.379.378.603.524.233.153.481.282.74.385a17.259 17.259 0 0 0 .92.306 46.344 46.344 0 0 1 .869.277c.138.046.273.089.405.128.176.063.348.139.513.227.145.077.281.17.406.277a1.012 1.012 0 0 1 .345.78.984.984 0 0 1-.326.78 1.891 1.891 0 0 1-.85.406c-.366.08-.74.12-1.116.118a5.54 5.54 0 0 1-.701-.049 10.06 10.06 0 0 1-.81-.138c-.283-.06-.573-.132-.87-.218-.296-.085-.595-.18-.898-.286l.079 1.68c.342.118.654.213.938.286.284.072.554.135.81.188.248.05.499.084.751.098.243.014.49.02.74.02a7.7 7.7 0 0 0 1.64-.168 4.234 4.234 0 0 0 1.344-.523c.374-.229.683-.548.9-.93.226-.417.338-.887.325-1.362a2.767 2.767 0 0 0-.168-1.018 2.304 2.304 0 0 0-.464-.74ZM65.132 25.34a4.246 4.246 0 0 0-2.361-.622 6.024 6.024 0 0 0-1.462.187 6.34 6.34 0 0 0-1.759.746v-.914l-2.015.316v14.108h2.015v-4.424l.04.018c.365.151.746.26 1.136.326.46.076.926.112 1.393.108a4.94 4.94 0 0 0 2.539-.652 4.693 4.693 0 0 0 1.778-1.887c.466-.934.694-1.969.662-3.013a6.15 6.15 0 0 0-.504-2.568 3.97 3.97 0 0 0-1.462-1.73Zm-.524 6.609a2.72 2.72 0 0 1-1.136 1.245 3.65 3.65 0 0 1-1.808.415 5.627 5.627 0 0 1-1.818-.296 18.54 18.54 0 0 1-.296-.107V26.97c.027-.012.053-.028.08-.04.288-.131.558-.243.81-.335a4.057 4.057 0 0 1 1.402-.257c.61-.02 1.214.112 1.758.385.477.26.85.674 1.058 1.176a5.06 5.06 0 0 1 .346 2.015c.02.7-.115 1.394-.396 2.035ZM73.677 24.865c-.37.1-.723.252-1.047.455-.337.21-.65.459-.93.74-.046.047-.091.1-.137.148v-1.471l-2.016.296v9.978h2.016v-7.465a5.16 5.16 0 0 1 1.077-.577c.204-.079.41-.148.622-.207a4.228 4.228 0 0 1 1.383-.148l.237-1.858a3.76 3.76 0 0 0-1.206.11ZM85.275 33.767a.9.9 0 0 1-.77-.316 1.7 1.7 0 0 1-.218-1.048l.04-4.07a4.745 4.745 0 0 0-.159-1.264 3.1 3.1 0 0 0-.474-1.008 2.674 2.674 0 0 0-.82-.731 4.197 4.197 0 0 0-1.195-.454 7.028 7.028 0 0 0-1.561-.159c-.416 0-.832.027-1.245.08-.39.049-.776.125-1.156.227-.352.095-.698.21-1.037.346l-.237 1.679a11.665 11.665 0 0 1 1.798-.494c.271-.052.545-.088.82-.109.27-.02.536-.03.8-.03.403-.008.805.039 1.195.139.285.071.547.214.761.415.19.195.327.437.395.701.085.326.124.662.119.998l-.002.496-2.31.156a6.132 6.132 0 0 0-2.292.514 3.282 3.282 0 0 0-1.353 1.096 2.554 2.554 0 0 0-.445 1.453 2.89 2.89 0 0 0 .346 1.393c.242.44.605.8 1.047 1.037.54.28 1.142.416 1.749.395a4.548 4.548 0 0 0 1.67-.277c.461-.18.884-.449 1.244-.79.137-.131.266-.27.389-.414.038.205.11.401.214.582.176.303.447.539.77.672.358.144.741.214 1.126.207.119 0 .234-.003.346-.01.11-.006.22-.023.326-.049.106-.027.2-.05.287-.07.077-.016.153-.04.227-.068l.217-1.324a1.736 1.736 0 0 1-.336.079 2.265 2.265 0 0 1-.276.02Zm-3.29-.89c-.214.17-.446.316-.691.435a3.13 3.13 0 0 1-.77.257c-.278.053-.559.08-.84.08a2.231 2.231 0 0 1-.94-.179 1.29 1.29 0 0 1-.582-.503 1.476 1.476 0 0 1-.198-.78c-.019-.33.072-.657.257-.93a1.51 1.51 0 0 1 .83-.494 6.01 6.01 0 0 1 1.541-.158h1.73l-.009 1.961c-.1.113-.21.217-.328.312ZM78.962 23.137c.373.177.782.264 1.195.257.424.008.844-.083 1.225-.267.345-.167.635-.427.84-.75.211-.349.318-.75.306-1.157a2.032 2.032 0 0 0-.652-1.58 2.4 2.4 0 0 0-1.679-.593 2.86 2.86 0 0 0-1.195.247 1.967 1.967 0 0 0-.86.74c-.22.364-.33.782-.316 1.206-.014.41.093.816.306 1.166.204.316.491.569.83.73Zm.316-2.845a1.267 1.267 0 0 1 .919-.316c.245-.011.488.047.701.168.173.106.31.26.395.444.09.199.133.415.129.632a1.4 1.4 0 0 1-.138.633c-.09.181-.23.332-.405.434-.216.115-.458.17-.702.158a1.488 1.488 0 0 1-.672-.138.899.899 0 0 1-.414-.415 1.49 1.49 0 0 1-.139-.672 1.239 1.239 0 0 1 .326-.928ZM93.85 35.011h2.608l-4.793-5.4 4.694-4.676h-2.47l-3.38 3.714h-.73v-8.555l-2.015.296v14.621h2.015v-4.84h.033l4.038 4.84Z"/></svg>
